icons/travel_alt.svg

<svg width="48" height="48" viewBox="0 0 48 48" fill="none" xmlns="http://www.w3.org/2000/svg">
<path fill-rule="evenodd" clip-rule="evenodd" d="M35.5 10C35.5 12.2091 33.7091 14 31.5 14C29.2909 14 27.5 12.2091 27.5 10C27.5 7.79086 29.2909 6 31.5 6C33.7091 6 35.5 7.79086 35.5 10ZM33.5 10C33.5 11.1046 32.6046 12 31.5 12C30.3954 12 29.5 11.1046 29.5 10C29.5 8.89543 30.3954 8 31.5 8C32.6046 8 33.5 8.89543 33.5 10Z" fill="black"/>
<path fill-rule="evenodd" clip-rule="evenodd" d="M11 28C11 26.8954 11.8954 26 13 26H16C17.1046 26 18 26.8954 18 28V30H21C22.1046 30 23 30.8954 23 32V40C23 41.1046 22.1046 42 21 42H8C6.89543 42 6 41.1046 6 40V32C6 30.8954 6.89543 30 8 30H11V28ZM8 40L8 32H10V40H8ZM16 28V30H13V28H16ZM17 32H12V40H17V32ZM19 32V40H21V32H19Z" fill="black"/>
<path d="M38 22C38 20.8954 37.1046 20 36 20V24C37.1046 24 38 23.1046 38 22Z" fill="black"/>
<path fill-rule="evenodd" clip-rule="evenodd" d="M28 42C26.3431 42 25 40.6569 25 39V22H20C18.3431 22 17 20.6569 17 19C17 17.3431 18.3431 16 20 16H37.0155C38.1288 16 42 17.3636 42 21.5714C42 24.91 39.5629 26.9978 38 27.7178V39C38 40.6569 36.6569 42 35 42C34.0444 42 33.1931 41.5532 32.6438 40.8571C32.2406 40.3463 32 39.7012 32 39V31H31V39C31 39.7012 30.7594 40.3463 30.3562 40.8571C29.8069 41.5532 28.9556 42 28 42ZM36 26.4371L37.1631 25.9013C38.3068 25.3744 40 23.8541 40 21.5714C40 20.1769 39.3947 19.3326 38.6921 18.7824C38.3207 18.4915 37.9182 18.2843 37.5656 18.1529C37.2625 18.04 37.0716 18.0101 37.0228 18.0025C37.0093 18.0004 37.0067 18 37.0155 18H20C19.4477 18 19 18.4477 19 19C19 19.5523 19.4477 20 20 20H27V39C27 39.5523 27.4477 40 28 40C28.5523 40 29 39.5523 29 39V29H34L34 39C34 39.5523 34.4477 40 35 40C35.5523 40 36 39.5523 36 39V26.4371Z" fill="black"/>
</svg>

<svg
  xmlns="http://www.w3.org/2000/svg"
  width="24"
  height="24"
  viewBox="0 0 24 24"
  fill="none"
  stroke="currentColor"
  stroke-width="2"
  stroke-linecap="round"
  stroke-linejoin="round"
>
  <path
    fill-rule="evenodd"
    d="M35.5 10a4 4 0 1 1-8 0 4 4 0 0 1 8 0m-2 0a2 2 0 1 1-4 0 2 2 0 0 1 4 0"
    clip-rule="evenodd"
  />
  <path
    fill-rule="evenodd"
    d="M11 28a2 2 0 0 1 2-2h3a2 2 0 0 1 2 2v2h3a2 2 0 0 1 2 2v8a2 2 0 0 1-2 2H8a2 2 0 0 1-2-2v-8a2 2 0 0 1 2-2h3zM8 40v-8h2v8zm8-12v2h-3v-2zm1 4h-5v8h5zm2 0v8h2v-8z"
    clip-rule="evenodd"
  />
  <path d="M38 22a2 2 0 0 0-2-2v4a2 2 0 0 0 2-2" />
  <path
    fill-rule="evenodd"
    d="M28 42a3 3 0 0 1-3-3V22h-5a3 3 0 1 1 0-6h17.016C38.129 16 42 17.364 42 21.571c0 3.339-2.437 5.427-4 6.147V39a3 3 0 1 1-6 0v-8h-1v8c0 .701-.24 1.346-.644 1.857A3 3 0 0 1 28 42m8-15.563 1.163-.536c1.144-.527 2.837-2.047 2.837-4.33 0-1.394-.605-2.238-1.308-2.789a4.3 4.3 0 0 0-1.126-.63 2.7 2.7 0 0 0-.543-.15q-.02-.002-.008-.002H20a1 1 0 1 0 0 2h7v19a1 1 0 1 0 2 0V29h5v10a1 1 0 1 0 2 0z"
    clip-rule="evenodd"
  />
</svg>
